X: 10372
Q: "Slowish"
M: 6/8
L: 1/8
K: C
c2c Tc2e | c2c c2e | dBG G2B | dBG GAB |\
c2c Tc2e | c2c dBG | A>Bc dBG | c3 c2 :|
|: e/f/ |\
g2e g2e | c2c ceg | a2f a2f | d2d def |\
g2e g2e | c2c dBG | A>Bc dBG | c3 c2 :|


